svg/arrow_right_bold_outline.svg

<svg xmlns="http://www.w3.org/2000/svg" viewBox="0 0 24 24"><path d="M11 16H3V8h8V2l10 10-10 10zm2-9v3H5v4h8v3l5-5z"/></svg>

<?xml version="1.0" encoding="UTF-8"?><!DOCTYPE svg PUBLIC "-//W3C//DTD SVG 1.1//EN" "http://www.w3.org/Graphics/SVG/1.1/DTD/svg11.dtd"><svg xmlns="http://www.w3.org/2000/svg" xmlns:xlink="http://www.w3.org/1999/xlink" version="1.1" id="mdi-arrow-right-bold-outline" width="24" height="24" viewBox="0 0 24 24"><path d="M11,16H3V8H11V2L21,12L11,22V16M13,7V10H5V14H13V17L18,12L13,7Z" /></svg>
